X:1
T:Cognoscam te Domine
T:Amadio Freddi
T:Source : Ghirlanda Sacra---Venetia---Ang.Gardano (B.Magni)---1625. Editor : André Vierendeels (23/12/16).
T:Notes : Original clefs : C4, F4 Editorial accidentals above the staff Figures in BC are notated in original print Original note values have been halved in 3-beat measures Music collected by Leonardo Simonetti 
T:Cognoscam te Domine
T:©
T:©
T:©
T:©
T:©
T:©
C:Amadio Freddi
Z:©
%%score 1 2
L:1/8
Q:1/4=101
M:4/4
K:F
V:1 treble-8 nm="Tenor" snm="T"
V:2 bass nm="MusicXML Part"
V:1
 z2 c2 TB3 G/A/ | cB A/G/F/E/ TF3 F | G2 c3 c B/A/c/B/ | A4 G4 | z2 G2 TF3 D | E2 c3 A d2- | %6
w: Co- gno- scam te|Do- * * * * * * mi-|ne, co- gni- tor _ _ _|me- us,|co- gno- sam|te vir- tus a-|
 d2 c>B c4 | B4 z2 d2 | c2 A/B/c/A/ G2 G2- | GEAG F2 E/F/G/F/ | E4 D4 | z2 G3 G F2 | E2 A3 FGA | %13
w: * ni- mae me-|ae, o-|sten- de- * * * te mi|_ hi con- so- la- tor _ _ _|me- us,|vi- de- am|te lu- men o- cu-|
 B>d c>B c2 d/e/f/d/ | _e2 e>d d4 | c4 z2 c/B/A/G/ | A2 F2 z2 B2- | BA G2 A2 G>F | G4 F4 | %19
w: lo- * * * * * * * *|* rum me- o-|rum, ve- * * *|* ni gau-|* di- um Spi- ri- tus|me- i|
[M:3/2] F6 F2 E4 | D8 G4 | E6 F2 G4 | A2 G2 A2 B2 c4 | c8 =B4 | c8 z4 | c6 c2 B4 | A12 | G8 E4 | %28
w: vi- de- am|te Lae-|ti- ti- am|cor- * * * *|dis me-|i,|di- li- gam|te|vi- ta|
 F4 G2 F2 E4 |[M:4/4] D4 z2 d2- | dc B2 AB GA | ^F2 G2 A2 B/A/c/B/ | A4 G4 | %33
w: a- ni- mae me|ae. Do-|* mi- ne De- * us _|me- us vi- ta _ _ _|me- a,|
 z2 G2 E/F/G/E/ A/G/A/G/ | F/G/A/F/ B/A/B/A/ G/A/B/G/ c2- | c2 dd G4 | F2 c3 B A2 | =B2 c4 B2 | %38
w: et glo- * * * * * * *||* ri- a to-|ta a- ni- mae|me- * *|
 c8 | z2 G2 F2 F>E | E2 cB A2 G>F | GA B4 A2 | B2 d4 c2- | c2 B/A/c/B/ A2 d2- | dc =B2 ^c2 d2- | %45
w: ae,|in- ve- ni- am|te de- si- de- ri- um|cor- dis me- *|i am- ple-|* ctar _ _ _ te spon-|* se coe- le- *|
 d2 ^c2 d2 d2 | c2 =B>A BBcd | _eGcB A4 | G2 G2 F2 E>D | E2 c2 B2 A>G | A2 F4 B2- | BA G2 z2 c2- | %52
w: * * stis pos-|si- de- am te be- a- ti-|tu- do sem- pi- ter-|na, pos- si- de- am|te, pos- si- de- am|te in me-|* di- o cor-|
 c2 B/A/c/B/ A4 | G8 |[M:3/2] G4 F2 E2 F2 D2 | E4 E4 z4 | c4 B2 A2 B2 G2 | A4 A4 z4 | %58
w: * dis _ _ _ me-|i,|vi- ta _ be- *|a- ta,|vi- ta _ be- *|a- ta|
 d6 c2 =B2 B2 | c8 A4 | B4 B2 A2 A4 | G8 z4 | G4 F2 E2 F2 D2 | E4 E4 z4 | c6 B2 A2 A2 | B8 G4 | %66
w: et dul- ce- do|sum- ma|a- ni- mae me-|ae,|vi- ta _ be- *|a- ta|et dul- ce- do|sum- ma|
 A4 G2 F2 E4 | D8 z4 | d6 c2 =B2 B2 | c8 A4 | B4 B2 A2 G4 |[M:4/4] F4 z2 F2- | FF _E/D/F/E/ D4 | %73
w: a- ni- mae me-|ae,|et dul- ce- do|sum- ma|a- ni- mae me-|ae, a-|* ni- mae _ _ _ me-|
 C8 |] %74
w: ae.|
V:2
"^BC" C,4 D,2 E,2 |"^6   5""^7 6" F,4 D,4 | C,2 A,,2 B,,2 C,2 |"^4 3""^-natural" D,4 G,,2 C,2 | %4
"^6    5" B,,2 G,,2 A,,2 =B,,2 |"^6" C,4 F,3 D, |"^6   5" G,4 _E,2 F,2 | B,,2 B,2 A,2 G,2 | %8
"^6   5""^-natural""^-natural" C,2 D,2 G,,2 G,,2 |"^6" C,2 F,2 D,2 G,,2 |"^4 3""^#" A,,4 D,4 | %11
"^7     5" G,,4 A,,2 =B,,2 | ^C,4 D,2 =C,2 | B,,2 A,,G,, F,2 E,D, |"^4 3" _E,4 G,,4 | %15
"^2  3" C,2 F,2 F,2 E,2 | F,2 D,2 G,3 F, | _E,3 D, C,2 D,2 |"^6" =B,,2 C,2 F,,4 | %19
[M:3/2]"^6" B,,4 A,,4 C,4 | G,,6 A,,2 =B,,4 | C,6 D,2 E,4 | F,8 F,4 |"^7 6" E,4 D,8 | %24
 C,6 C,2 B,,4 | A,,8 G,,4 | F,,6 G,,2 A,,2 B,,2 | C,8 C,4 |"^#" B,,4 G,,4 A,,4 | %29
[M:4/4]"^#" D,4 G,4 |"^6" ^F,2 G,2 C,2 _E,2 |"^#" D,2 E,2 F,2 G,2 | %32
"^#""^-natural" C,2 D,2 G,,2 C,2 | A,,2 =B,,2 C,2 F,2 | D,2 G,2 E,2 C,2 | %35
"^-natural""^4 3" A,,2 B,,2 C,4 | F,,2 F,2 E,2 ^F,2 |"^6   5" ^G,2 A,2 ^F,2 =G,2 | C,8 | %39
"^6    5" z2 G,,2 A,,2 =B,,2 |"^5 6" C,2 C,2 D,4 |"^4 3" C,2 B,,2 F,4 | B,,2 B,2 G,2 A,2 | %43
"^#" ^F,2 G,2 D,4 |"^6 #" G,3 F, E,2 D,2 |"^4 3" A,,4 D,2 B,,2 | C,2 D,2 G,,2 A,,B,, | %47
"^b""^4 3" C,2 C,2 D,4 |"^6 5" G,,2 E,,2 F,,2 G,,2 |"^6  6 5" C,2 A,,2 B,,2 C,2 | F,,4 B,,3 A,, | %51
 G,,2 _E,2 D,2 C,2 |"^3 4 3" D,8 | G,,8 |[M:3/2]"^-natural" C,4 F,,4 G,,4 | C,6 D,2 E,4 | %56
 F,4 B,,4 C,4 | F,6 G,2 A,4 | B,6 A,2 G,4 | E,8 F,4 |"^6" B,,4 C,4 D,4 | G,,6 A,,2 =B,,4 | %62
"^-natural" C,4 F,,4 G,,4 | C,6 D,2 E,4 | F,8 F,4 | D,8 E,4 |"^#" F,,4 G,,4 A,,4 | D,6 E,2 ^F,4 | %68
 G,8 G,4 | E,8 F,4 | B,,4 B,,4 C,4 |[M:4/4] F,,2 B,,4 A,,2 |"^3 4 3" G,,8 | C,8 |] %74

